X: 21100
T: Kandahar
R: reel
M: 4/4
K: Bminor
e^dBA FAEF|B,^DEF Ace^d|e^dBA FAef|a=cBc GAGE|
Fe^dB ABFA|B,^DEF Ace^d|e^dBA FAEF|1 B,^DEF EDB,z:|2 B,^DEF EDB,=C||
K: Dmin
DdcB AG^FG|ABAG ^FGAD|DBDD B2AG|^FGA_E DEDC|
DdcB AG^FG|ABAG ^FGAD|DBDD B2AG|1 ^FA_EA D3C:|2 ^FGAB ^ceg^f||

